X: 23501
T: Liam Childs
R: slip jig
M: 9/8
K: Gmajor
"^Intro" B4- B4- B|A4- A4- A|G4- G4- G|A4- A3 GA|B4- B4- B|A4- A4- A|c4- c4- c|A4- A3 GA|
|:B2 B BAG Bdd|A2 A AGA BGd|G3- GAG GED|BAA AB/c/d edg|
B2 B BAG Bdd|A2 A AGA BGd|G3- GAG GED|1 BAA ABA G2 A:|2 BAA ABA GB/c/d||
|:ged ABB BAG|ged BAG DEG|ged B2 A Bdg|e2 d egb a2 b|
ged ABB BAG|ged BAG DEG|A2 A ABA AGE|1 edB dBA GB/c/d:|2 edB dBA G3||

